!!!OTL: "Trennung" DA UNTEN IM THALE LAEUFTS WASSER SO TRUEB
!!!ARE: Europa, Mitteleuropa, Deutschland, Schwaben
!!!SCT: Z1189
!!!YEM: Copyright 1995, estate of Helmut Schaffrath.
**kern
*ICvox
*Ivox
*M3/4
*k[f#c#g#d#]
*E:
{8e
8f#
=1
4g#
4.g#
8a
=2
4.cc#
8b
4b
=3
4.b
8a
4a
=4
4a
8g#
8r}
{8g#
8g#
=5
4g#
8f#
4r
8f#
=6
4f#
8e
4r
8g#
=7
4.a
8d#
4d#
=8
4e
4r}
==
!!!AGN: Liebes - Lied, Abschieds - Lied
!!!ONB: ESAC (Essen Associative Code) Database: ZUCCAL
!!!AMT: simple triple
!!!AIN: vox
!!!EED: Helmut Schaffrath
!!!EEV: 1.0
*-
